X: 24619
T: Mac's Fancy
R: jig
M: 6/8
K: Amixolydian
|:eAA BAB|eAA B^cd|eAA BAB|dBG GBd|
eAA BAB|eAA B^cd|egg gfe|dBG GBd:|
|:A2 a aea|aea aea|A2 a aef|~g3 gfe|
A2 a aea|aea aef|~g3 gfe|dBG GBd:|

